source/assets/images/icons/edition-large.svg

<?xml version="1.0" encoding="UTF-8" standalone="no"?>
<svg width="14px" height="16px" viewBox="0 0 14 16" version="1.1" xmlns="http://www.w3.org/2000/svg" xmlns:xlink="http://www.w3.org/1999/xlink" xmlns:sketch="http://www.bohemiancoding.com/sketch/ns">
    <!-- Generator: Sketch 3.2.2 (9983) - http://www.bohemiancoding.com/sketch -->
    <title>edition-large</title>
    <desc>Created with Sketch.</desc>
    <defs></defs>
    <g id="assets/icons" stroke="none" stroke-width="1" fill="none" fill-rule="evenodd" sketch:type="MSPage">
        <path d="M13.125,16 L13.125,11.36 L11.3861162,11.36 L11.0764519,14.0114286 L4.5496824,14.0114286 L4.5496824,1.94285714 C5.31193285,1.92 6.05036298,1.87428571 6.7887931,1.76 L6.7887931,0 L0,0 L0,1.76 C0.666969147,1.82857143 1.31011797,1.87428571 1.95326679,1.92 L1.95326679,14.08 C1.57214156,14.1028571 1.00045372,14.1485714 0.0476406534,14.24 L0.0476406534,16 L13.125,16 Z" id="edition-large" fill="#474747" sketch:type="MSShapeGroup"></path>
    </g>
</svg>

<svg width="14" height="16" viewBox="0 0 14 16" xmlns="http://www.w3.org/2000/svg"><title>edition-large</title><path d="M13.125 16v-4.64h-1.74l-.31 2.65H4.55V1.944c.762-.023 1.5-.07 2.24-.183V0H0v1.76c.667.07 1.31.114 1.953.16v12.16c-.38.023-.953.07-1.905.16V16h13.077z" fill="#474747" fill-rule="evenodd"/></svg>
